X:1
T:Silver Threads
M:C
L:1/8
Q:80
C:
S:March
K:HP
{g}f3g2{fg}fA{g}Ge | \
{Gdc}d4{e}A4 | \
{g}A3B{g}cg{a}B3/2g/2 |
{gfg}f4{e}f2A | \
{g}f3g2{fg}fA{g}Ge | \
{Gdc}d4{e}A4 |
{g}A3B{g}cg{a}f3/2e/2 | \
{Gdc}d4{gcG}d4|]
{g}c3d{gef}eA{g}Gc |
{Gdc}d3A{g}f4 | \
{g}e3{A}e{gef}eA{gf}g3/2f/2 | \
{gef}e4{A}e2A |
{g}f3g2{fg}fA{g}Ge | \
{Gdc}d4{e}A4 | \
{g}A3B{g}cg{a}f3/2e/2 |
{Gdc}d4{gcG}d4|]
